!!!id: BC025
!!!page: 34-35
!!!COM: Anonymous (Folklore); arr. Charles-Émile Gadbois
!!!PTL@@FR: Les 100 plus belles chansons
!!!OTL@@FR: V'là l'bon vent
!!!PUB:La Bonne Chanson, inc.
!!!YEM: On ne peut reproduire, enregistrer ou diffuser en tout ou en partie le présent ouvrage, sous quelque procédé que ce soit, électronique, mécanique, photographique, sonore, magnétique ou autre, sans avoir obtenu au préalable l'autorisation écrite de l'éditrice.
!!!PDT: 2011
!!!SMA: 2012 Bibliothèque nationale du Québec; Biblothèque nationale du Canada
!!!AGN-Laforte: Chanson en laisse (avec refrain), 13:2(8), R1(4+4)
!!!AGN-type: Chanson de chasse
!!!AGN-rime: monorhyme /ɑ̃/
!!!elisions: v'là = voilà; l'bon = le bon; l'joli = le joli; derrièr' = derrière; sor'nt = sortent; plum's = plumes; dam's = dames
!!!OMD: Gaiement
**kern	**text	**kern	**text	**text	**text	**text	**text	**text	**text	**text	**text	**text	**text	**text	**text
*clefG2	*	*clefG2	*	*	*	*	*	*	*	*	*	*	*	*	*
*k[f#c#]	*	*k[f#c#]	*	*	*	*	*	*	*	*	*	*	*	*	*
*D:	*	*D:	*	*	*	*	*	*	*	*	*	*	*	*	*
*M2/4	*	*M2/4	*	*	*	*	*	*	*	*	*	*	*	*	*
*>Refrain	*>Refrain	*>Refrain	*>Refrain	*>Refrain	*>Refrain	*>Refrain	*>Refrain	*>Refrain	*>Refrain	*>Refrain	*>Refrain	*>Refrain	*>Refrain	*>Refrain	*>Refrain
*color:crimson	*	*color:dodgerblue	*	*	*	*	*	*	*	*	*	*	*	*	*
*	*refrain	*	*refrain	*	*	*	*	*	*	*	*	*	*	*	*
*	*italic	*	*italic	*	*	*	*	*	*	*	*	*	*	*	*
!!LO:TX:a:B:t=REFRAIN
{{8f#	V'là	{{8f#	V'là	.	.	.	.	.	.	.	.	.	.	.	.
8d	l'bon,	8b	l'bon	.	.	.	.	.	.	.	.	.	.	.	.
=1	=1	=1	=1	=1	=1	=1	=1	=1	=1	=1	=1	=1	=1	=1	=1
*	*	*	*	*	*	*	*	*	*	*	*	*	*	*	*
*	*bis	*	*	*	*	*	*	*	*	*	*	*	*	*	*
8B	v'là	4b	vent,	.	.	.	.	.	.	.	.	.	.	.	.
8d	l'bon	.	.	.	.	.	.	.	.	.	.	.	.	.	.
4d	vent,	8f#	v'là	.	.	.	.	.	.	.	.	.	.	.	.
.	.	16b	l'jo-	.	.	.	.	.	.	.	.	.	.	.	.
.	.	16b	-li	.	.	.	.	.	.	.	.	.	.	.	.
=2	=2	=2	=2	=2	=2	=2	=2	=2	=2	=2	=2	=2	=2	=2	=2
8B	V'la	4b	vent,	.	.	.	.	.	.	.	.	.	.	.	.
16d	l'jo-	.	.	.	.	.	.	.	.	.	.	.	.	.	.
16d	-li	.	.	.	.	.	.	.	.	.	.	.	.	.	.
8d	vent,	8f#	V'là	.	.	.	.	.	.	.	.	.	.	.	.
8d	l'bon	8b	l'bon	.	.	.	.	.	.	.	.	.	.	.	.
!!LO:PB:g=original
=3	=3	=3	=3	=3	=3	=3	=3	=3	=3	=3	=3	=3	=3	=3	=3
8d	vent,	8b	vent,	.	.	.	.	.	.	.	.	.	.	.	.
*	*Xitalic	*	*Xitalic	*	*	*	*	*	*	*	*	*	*	*	*
*	*Xrefrain	*	*Xrefrain	*	*	*	*	*	*	*	*	*	*	*	*
*	*pline:R1Ha4	*	*pline:R1Ha4	*	*	*	*	*	*	*	*	*	*	*	*
(16dL	ma	(16bL	ma	.	.	.	.	.	.	.	.	.	.	.	.
16eJ)	.	16cc#J)	.	.	.	.	.	.	.	.	.	.	.	.	.
8f#	mie	8dd	mie	.	.	.	.	.	.	.	.	.	.	.	.
8f#	m'ap-	8dd	m'ap-	.	.	.	.	.	.	.	.	.	.	.	.
=4	=4	=4	=4	=4	=4	=4	=4	=4	=4	=4	=4	=4	=4	=4	=4
8e	-pel-	8cc#	-pel-	.	.	.	.	.	.	.	.	.	.	.	.
8e}	-le,	8cc#}	-le,	.	.	.	.	.	.	.	.	.	.	.	.
*	*refrain	*	*refrain	*	*	*	*	*	*	*	*	*	*	*	*
*	*italic	*	*italic	*	*	*	*	*	*	*	*	*	*	*	*
{8f#	V'là	{8f#	V'là	.	.	.	.	.	.	.	.	.	.	.	.
8d	l'bon,	8b	l'bon	.	.	.	.	.	.	.	.	.	.	.	.
=5	=5	=5	=5	=5	=5	=5	=5	=5	=5	=5	=5	=5	=5	=5	=5
8B	v'là	4b	vent,	.	.	.	.	.	.	.	.	.	.	.	.
8d	l'bon	.	.	.	.	.	.	.	.	.	.	.	.	.	.
4d	vent,	8f#	v'là	.	.	.	.	.	.	.	.	.	.	.	.
.	.	16b	l'jo-	.	.	.	.	.	.	.	.	.	.	.	.
.	.	16b	-li	.	.	.	.	.	.	.	.	.	.	.	.
!!LO:PB:g=original
=6	=6	=6	=6	=6	=6	=6	=6	=6	=6	=6	=6	=6	=6	=6	=6
8B	V'là	4b	vent,	.	.	.	.	.	.	.	.	.	.	.	.
16d	l'jo-	.	.	.	.	.	.	.	.	.	.	.	.	.	.
16d	-li	.	.	.	.	.	.	.	.	.	.	.	.	.	.
8d	vent,	8f#	V'là	.	.	.	.	.	.	.	.	.	.	.	.
8d	l'bon	8b	l'bon	.	.	.	.	.	.	.	.	.	.	.	.
=7	=7	=7	=7	=7	=7	=7	=7	=7	=7	=7	=7	=7	=7	=7	=7
8d	vent,	8b	vent,	.	.	.	.	.	.	.	.	.	.	.	.
*	*Xitalic	*	*Xitalic	*	*	*	*	*	*	*	*	*	*	*	*
*	*Xrefrain	*	*Xrefrain	*	*	*	*	*	*	*	*	*	*	*	*
*	*pline:R1Hb5	*	*pline:R1Hb5	*	*	*	*	*	*	*	*	*	*	*	*
!!LO:TX:a:i:t=poco rit.
(16dL	ma	(16bL	ma	.	.	.	.	.	.	.	.	.	.	.	.
16eJ)	.	16cc#J)	.	.	.	.	.	.	.	.	.	.	.	.	.
8f#	mie	8dd	mie	.	.	.	.	.	.	.	.	.	.	.	.
8f#	m'at-	8cc#	m'at-	.	.	.	.	.	.	.	.	.	.	.	.
!!LO:PB:g=original
=8	=8	=8	=8	=8	=8	=8	=8	=8	=8	=8	=8	=8	=8	=8	=8
8b}}	-tend.	8b}}	-tend.	.	.	.	.	.	.	.	.	.	.	.	.
*	*rp:ɑ̃	*	*rp:ɑ̃	*	*	*	*	*	*	*	*	*	*	*	*
*	*rf:tɑ̃	*	*rf:tɑ̃	*	*	*	*	*	*	*	*	*	*	*	*
*	*rs:Ra1	*	*Ra1	*	*	*	*	*	*	*	*	*	*	*	*
!!! a caesura should go here
=||	=||	=||	=||	=||	=||	=||	=||	=||	=||	=||	=||	=||	=||	=||	=||
*	*	*	*vv:1	*vv:2	*vv:3	*vv:4	*vv:5	*vv:6	*vv:7	*vv:8	*vv:9	*vv:10	*vv:11	*vv:12	*vv:13
*	*	*	*pline:1	*pline:2r	*pline:3r	*pline:4r	*pline:5r	*pline:6r	*pline:7r	*pline:8r	*pline:9r	*pline:10r	*pline:11r	*pline:12r	*pline:13r
!!LO:TX:a:B:t=Solo
8r	.	8f#	Der-	Trois	Le	A-	Vi-	O	D'a-	Par	Par	Et	Tou-	Trois	C'est
4r	.	8b	-rièr'	beau	fils	-vec	-sa	fils	-voir	des-	les	par	-tes	dam's	pour
.	.	8dd	chez	ca-	du	son	le	du	tu-	-sous	yeux	le	ses	s'en	en
=9	=9	=9	=9	=9	=9	=9	=9	=9	=9	=9	=9	=9	=9	=9	=9
2r	.	8cc#	nous	-nards	roi	grand	noir,	roi,	-é	l'aile,	lui	bec,	plum's	vont	fair[e]
!!v:1, added "t" for liaison between "a" and "un" (y a-t-un)
.	.	8b	y a-	s'en	s'en	fu-	tu-	tu	mon	il	sort'nt	l'or	s'en	les	un
.	.	8a	-t-un	vont	va	-sil	-a	es	ca-	perd	des	et	vont	ra-	lit
.	.	8cc#	é-	bai-	chas-	d'ar-	le	mé-	-nard	son	dia-	l'ar-	au	-mas-	de
=10	.	=10	=10	=10	=10	=10	=10	=10	=10	=10	=10	=10	=10	=10	=10
2r	.	8b	-tang,	-gnant,	-sant,	-gent,	blanc;	-chant!	blanc;	sang,	-mants,	-gent.	vent,	-sant;	camp,
*	*	*	*rp:ɑ̃	*rp:ɑ̃	*rp:ɑ̃	*rp:ɑ̃	*rp:ɑ̃	*rp:ɑ̃	*rp:ɑ̃	*rp:ɑ̃	*rp:ɑ̃	*rp:ɑ̃	*rp:ɑ̃	*rp:ɑ̃	*rp:ɑ̃
*	*	*	*rf:tɑ̃	*rf:ɲɑ̃	*rf:sɑ̃	*rf:ʒɑ̃	*rf:blɑ̃	*rf:ʃɑ̃	*rf:blɑ̃	*rf:sɑ̃	*rf:mɑ̃	*rf:ʒɑ̃	*rf:vɑ̃	*rf:sɑ̃	*rf:kɑ̃
*	*	*	*rs:a1	*rs:a2	*rs:a3	*rs:a4	*rs:a5	*rs:a6	*rs:a5	*rs:a3	*rs:a6	*rs:a4	*rs:a7	*rs:a3	*rs:a8
*	*	*	*pline:1r	*pline:2r	*pline:3r	*pline:4r	*pline:5r	*	*pline:7r	*pline:8r	*pline:9r	*pline:10r	*pline:11r	*pline:12r	*pline:13r
!!Editorial addition
!!LO:TX:a:B:t=(Chœur)
.	.	8f#	Der-	Trois	Le	A-	Vi-	O	D'a-	Par	Par	Et	Tou-	Trois	C'est
.	.	8b	-rièr'	beau	fils	-vec	-sa	fils	-voir	des-	les	par	-tes	dam's	pour
.	.	8dd	chez	ca-	du	son	le	du	tu-	-sous	yeux	le	ses	s'en	en
!!LO:PB:g=original
=11	.	=11	=11	=11	=11	=11	=11	=11	=11	=11	=11	=11	=11	=11	=11
!!! the music should join onto only ONE line here, is that an important thing to encode?
2r	.	8cc#	nous	-nards	roi	grand	noir,	roi,	-é	l'aile,	lui	bec,	plum's	vont	fair[e]
.	.	8b	y a-	s'en	s'en	fu-	tu-	tu	mon	il	sort'nt	l'or	s'en	les	un
.	.	8a	-t-un	vont	va	-sil	-a	es	ca-	perd	des	et	vont	ra-	lit
.	.	8cc#	é-	bai-	chas-	d'ar-	le	mé-	-nard	son	dia-	l'ar-	au	-mas-	de
=12	.	=12	=12	=12	=12	=12	=12	=12	=12	=12	=12	=12	=12	=12	=12
2r	.	8b	-tang,	-gnant	-sant	-gent	blanc;	-chant!	blanc;	sang	-mants,	-gent.	vent	-sant;	camp,
*	*	*	*rp:ɑ̃	*rp:ɑ̃	*rp:ɑ̃	*rp:ɑ̃	*rp:ɑ̃	*rp:ɑ̃	*rp:ɑ̃	*rp:ɑ̃	*rp:ɑ̃	*rp:ɑ̃	*rp:ɑ̃	*rp:ɑ̃	*rp:ɑ̃
*	*	*	*rf:tɑ̃	*rf:ɲɑ̃	*rp:sɑ̃	*rp:ʒɑ̃	*rp:blɑ̃	*rp:ʃɑ̃	*rp:blɑ̃	*rp:sɑ̃	*rp:mɑ̃	*rp:ʒɑ̃	*rp:vɑ̃	*rp:sɑ̃	*rp:kɑ̃
*	*	*	*rs:a1	*rs:a2	*rs:a3	*rs:a4	*rs:a5	*rs:a6	*rs:a5	*rs:a3	*rs:a6	*rs:a4	*rs:a7	*rs:a3	*rs:a8
*	*	*	*pline:2	*pline:3	*pline:4	*pline:5	*pline:6	*pline:7	*pline:8	*pline:9	*pline:10	*	*	*pline:13	*
!!LO:TX:a:B:t=Solo
.	.	8f#	Trois	Le	A-	Vi-	O	D'a-	Par	Par	Et	Tou-	Trois	C'est	Pour
.	.	8b	beau	fils	-vec	-sa	fils	-voir	des-	les	par	-tes	dam's	pour	y
.	.	8dd	ca-	du	son	le	du	tu-	-sous	yeux	le	ses	s'en	en	cou-
=13	.	=13	=13	=13	=13	=13	=13	=13	=13	=13	=13	=13	=13	=13	=13
!!LO:TX:a:i:t=rit.
2r	.	8cc#	-nards	roi	grand	noir,	roi,	-é	l'aile,	lui	bec,	plum's	vont	fair[e]	-cher
.	.	8b	s'en	s'en	fu-	tu-	tu	mon	il	sort'nt	l'or	s'en	les	un	tout
.	.	8b	vont	va	-sil	-a	es	ca-	perd	des	et	vont	ra-	lit	les
.	.	8a	bai-	chas-	d'ar-	le	mé-	-nard	son	dia-	l'ar-	au	-mas-	de	pas-
=14	.	=14	=14	=14	=14	=14	=14	=14	=14	=14	=14	=14	=14	=14	=14
4r	.	4a;	-gnant.	-sant.	-gent.	blanc.	-chant!	blanc.	sang.	-mants.	-gent.	vent.	-sant.	camp.	-sants.
*	*	*	*rp:ɑ̃	*rp:ɑ̃	*rp:ɑ̃	*rp:ɑ̃	*rp:ɑ̃	*rp:ɑ̃	*rp:ɑ̃	*rp:ɑ̃	*rp:ɑ̃	*rp:ɑ̃	*rp:ɑ̃	*rp:ɑ̃	*rp:ɑ̃
*	*	*	*rf:ɲɑ̃	*rf:sɑ̃	*rf:ʒɑ̃	*rf:blɑ̃	*rf:ʃɑ̃	*rf:blɑ̃	*rf:sɑ̃	*rf:mɑ̃	*rf:ʒɑ̃	*rf:vɑ̃	*rf:sɑ̃	*rf:kɑ̃	*rf:sɑ̃
*	*	*	*rs:a2	*rs:a3	*rs:a4	*rs:a5	*rs:a6	*rs:a5	*rs:a3	*rs:a6	*rs:a4	*rs:a7	*rs:a3	*rs:a8	*rs:a3
=:||	=:||	=:||	=:||	=:||	=:||	=:||	=:||	=:||	=:||	=:||	=:||	=:||	=:||	=:||	=:||
*-	*-	*-	*-	*-	*-	*-	*-	*-	*-	*-	*-	*-	*-	*-	*-
!!!system-decoration: [*]
!!!EED: Isaac Howie
!!!EEV: 2025/May/27
!!!EED: Ève Poudrier
!!!EEV: 2025/June/19
